content/intro-probability/images/fivepoints.svg

<svg height="28.08pt" viewBox="0 0 142.73 28.08" width="142.73pt" xmlns="http://www.w3.org/2000/svg" xmlns:xlink="http://www.w3.org/1999/xlink"><symbol id="a" overflow="visible"><path d="m3.140625-8.234375c-1.84375 0-2.796875 1.46875-2.796875 4.359375 0 1.40625.25 2.609375.671875 3.1875.421875.59375 1.09375.921875 1.828125.921875 1.8125 0 2.71875-1.546875 2.71875-4.609375 0-2.625-.78125-3.859375-2.421875-3.859375zm-.21875.421875c1.171875 0 1.625 1.171875 1.625 4.03125 0 2.546875-.453125 3.609375-1.546875 3.609375-1.15625 0-1.65625-1.21875-1.65625-4.125 0-2.53125.453125-3.515625 1.578125-3.515625zm0 0"/></symbol><symbol id="b" overflow="visible"><path d="m.796875-6.640625h.125l1.546875-.6875c0-.015625.015625-.015625.03125-.015625.0625 0 .09375.109375.09375.40625v5.796875c0 .609375-.125.75-.78125.78125l-.671875.03125v.359375c1.84375-.03125 1.84375-.03125 1.984375-.03125.15625 0 .40625 0 .8125.015625.15625.015625.5625.015625 1.0625.015625v-.359375l-.625-.03125c-.65625-.03125-.78125-.171875-.78125-.78125v-7.09375l-.15625-.0625c-.78125.40625-1.625.765625-2.71875 1.15625zm0 0"/></symbol><g fill="none" stroke-linecap="round" stroke-linejoin="round" stroke-miterlimit="10" stroke-width="4.99887" transform="matrix(.1 0 0 -.1 0 28.08)"><path d="m79.804688 168.3v75" stroke="#7f7f7f"/><path d="m1347.1875 168.3v75" stroke="#7f7f7f"/><path d="m79.804688 205.8h1267.382812" stroke="#7f7f7f"/><g stroke="#000"><path d="m238.242188 205.8v-25.351563"/><path d="m396.679688 205.8v-25.351563"/><path d="m555.078125 205.8v-25.351563"/><path d="m713.515625 205.8v-25.351563"/><path d="m871.914062 205.8v-25.351563"/><path d="m1030.351562 205.8v-25.351563"/><path d="m1188.75 205.8v-25.351563"/><path d="m1347.1875 205.8v-25.351563"/></g></g><use x="5.03984" xlink:href="#a" y="22.79992"/><use x="131.75984" xlink:href="#b" y="23.039764"/></svg>

<?xml version="1.0" encoding="UTF-8"?>
<svg xmlns="http://www.w3.org/2000/svg" xmlns:xlink="http://www.w3.org/1999/xlink" width="142.73pt" height="28.08pt" viewBox="0 0 142.73 28.08" version="1.1">
<defs>
<g>
<symbol overflow="visible" id="glyph0-0">
<path style="stroke:none;" d=""/>
</symbol>
<symbol overflow="visible" id="glyph0-1">
<path style="stroke:none;" d="M 3.140625 -8.234375 C 1.296875 -8.234375 0.34375 -6.765625 0.34375 -3.875 C 0.34375 -2.46875 0.59375 -1.265625 1.015625 -0.6875 C 1.4375 -0.09375 2.109375 0.234375 2.84375 0.234375 C 4.65625 0.234375 5.5625 -1.3125 5.5625 -4.375 C 5.5625 -7 4.78125 -8.234375 3.140625 -8.234375 Z M 2.921875 -7.8125 C 4.09375 -7.8125 4.546875 -6.640625 4.546875 -3.78125 C 4.546875 -1.234375 4.09375 -0.171875 3 -0.171875 C 1.84375 -0.171875 1.34375 -1.390625 1.34375 -4.296875 C 1.34375 -6.828125 1.796875 -7.8125 2.921875 -7.8125 Z M 2.921875 -7.8125 "/>
</symbol>
<symbol overflow="visible" id="glyph0-2">
<path style="stroke:none;" d="M 0.796875 -6.640625 L 0.921875 -6.640625 L 2.46875 -7.328125 C 2.46875 -7.34375 2.484375 -7.34375 2.5 -7.34375 C 2.5625 -7.34375 2.59375 -7.234375 2.59375 -6.9375 L 2.59375 -1.140625 C 2.59375 -0.53125 2.46875 -0.390625 1.8125 -0.359375 L 1.140625 -0.328125 L 1.140625 0.03125 C 2.984375 0 2.984375 0 3.125 0 C 3.28125 0 3.53125 0 3.9375 0.015625 C 4.09375 0.03125 4.5 0.03125 5 0.03125 L 5 -0.328125 L 4.375 -0.359375 C 3.71875 -0.390625 3.59375 -0.53125 3.59375 -1.140625 L 3.59375 -8.234375 L 3.4375 -8.296875 C 2.65625 -7.890625 1.8125 -7.53125 0.71875 -7.140625 Z M 0.796875 -6.640625 "/>
</symbol>
</g>
</defs>
<g id="surface1">
<path style="fill:none;stroke-width:4.99887;stroke-linecap:round;stroke-linejoin:round;stroke:rgb(50%,50%,50%);stroke-opacity:1;stroke-miterlimit:10;" d="M 79.804688 168.3 L 79.804688 243.3 " transform="matrix(0.1,0,0,-0.1,0,28.08)"/>
<path style="fill:none;stroke-width:4.99887;stroke-linecap:round;stroke-linejoin:round;stroke:rgb(50%,50%,50%);stroke-opacity:1;stroke-miterlimit:10;" d="M 1347.1875 168.3 L 1347.1875 243.3 " transform="matrix(0.1,0,0,-0.1,0,28.08)"/>
<path style="fill:none;stroke-width:4.99887;stroke-linecap:round;stroke-linejoin:round;stroke:rgb(50%,50%,50%);stroke-opacity:1;stroke-miterlimit:10;" d="M 79.804688 205.8 L 1347.1875 205.8 " transform="matrix(0.1,0,0,-0.1,0,28.08)"/>
<path style="fill:none;stroke-width:4.99887;stroke-linecap:round;stroke-linejoin:round;stroke:rgb(0%,0%,0%);stroke-opacity:1;stroke-miterlimit:10;" d="M 238.242188 205.8 L 238.242188 180.448437 " transform="matrix(0.1,0,0,-0.1,0,28.08)"/>
<path style="fill:none;stroke-width:4.99887;stroke-linecap:round;stroke-linejoin:round;stroke:rgb(0%,0%,0%);stroke-opacity:1;stroke-miterlimit:10;" d="M 396.679688 205.8 L 396.679688 180.448437 " transform="matrix(0.1,0,0,-0.1,0,28.08)"/>
<path style="fill:none;stroke-width:4.99887;stroke-linecap:round;stroke-linejoin:round;stroke:rgb(0%,0%,0%);stroke-opacity:1;stroke-miterlimit:10;" d="M 555.078125 205.8 L 555.078125 180.448437 " transform="matrix(0.1,0,0,-0.1,0,28.08)"/>
<path style="fill:none;stroke-width:4.99887;stroke-linecap:round;stroke-linejoin:round;stroke:rgb(0%,0%,0%);stroke-opacity:1;stroke-miterlimit:10;" d="M 713.515625 205.8 L 713.515625 180.448437 " transform="matrix(0.1,0,0,-0.1,0,28.08)"/>
<path style="fill:none;stroke-width:4.99887;stroke-linecap:round;stroke-linejoin:round;stroke:rgb(0%,0%,0%);stroke-opacity:1;stroke-miterlimit:10;" d="M 871.914062 205.8 L 871.914062 180.448437 " transform="matrix(0.1,0,0,-0.1,0,28.08)"/>
<path style="fill:none;stroke-width:4.99887;stroke-linecap:round;stroke-linejoin:round;stroke:rgb(0%,0%,0%);stroke-opacity:1;stroke-miterlimit:10;" d="M 1030.351562 205.8 L 1030.351562 180.448437 " transform="matrix(0.1,0,0,-0.1,0,28.08)"/>
<path style="fill:none;stroke-width:4.99887;stroke-linecap:round;stroke-linejoin:round;stroke:rgb(0%,0%,0%);stroke-opacity:1;stroke-miterlimit:10;" d="M 1188.75 205.8 L 1188.75 180.448437 " transform="matrix(0.1,0,0,-0.1,0,28.08)"/>
<path style="fill:none;stroke-width:4.99887;stroke-linecap:round;stroke-linejoin:round;stroke:rgb(0%,0%,0%);stroke-opacity:1;stroke-miterlimit:10;" d="M 1347.1875 205.8 L 1347.1875 180.448437 " transform="matrix(0.1,0,0,-0.1,0,28.08)"/>
<path style="fill:none;stroke-width:29.9932;stroke-linecap:round;stroke-linejoin:round;stroke:rgb(9.812927%,9.812927%,43.920898%);stroke-opacity:1;stroke-miterlimit:10;" d="M 390.3125 205.8 L 390.3125 205.8 " transform="matrix(0.1,0,0,-0.1,0,28.08)"/>
<path style="fill:none;stroke-width:29.9932;stroke-linecap:round;stroke-linejoin:round;stroke:rgb(9.812927%,9.812927%,43.920898%);stroke-opacity:1;stroke-miterlimit:10;" d="M 1187.5 205.8 L 1187.5 205.8 " transform="matrix(0.1,0,0,-0.1,0,28.08)"/>
<path style="fill:none;stroke-width:29.9932;stroke-linecap:round;stroke-linejoin:round;stroke:rgb(9.812927%,9.812927%,43.920898%);stroke-opacity:1;stroke-miterlimit:10;" d="M 1344.648438 205.8 L 1344.648438 205.8 " transform="matrix(0.1,0,0,-0.1,0,28.08)"/>
<path style="fill:none;stroke-width:29.9932;stroke-linecap:round;stroke-linejoin:round;stroke:rgb(9.812927%,9.812927%,43.920898%);stroke-opacity:1;stroke-miterlimit:10;" d="M 798.398438 205.8 L 798.398438 205.8 " transform="matrix(0.1,0,0,-0.1,0,28.08)"/>
<path style="fill:none;stroke-width:29.9932;stroke-linecap:round;stroke-linejoin:round;stroke:rgb(9.812927%,9.812927%,43.920898%);stroke-opacity:1;stroke-miterlimit:10;" d="M 690.703125 205.8 L 690.703125 205.8 " transform="matrix(0.1,0,0,-0.1,0,28.08)"/>
<g style="fill:rgb(0%,0%,0%);fill-opacity:1;">
  <use xlink:href="#glyph0-1" x="5.03984" y="22.79992"/>
</g>
<g style="fill:rgb(0%,0%,0%);fill-opacity:1;">
  <use xlink:href="#glyph0-2" x="131.75984" y="23.039764"/>
</g>
</g>
</svg>
